public/svg/icon/wtc.svg

<svg xmlns="http://www.w3.org/2000/svg" xmlns:xlink="http://www.w3.org/1999/xlink" width="32" height="32" viewBox="0 0 32 32"><defs><linearGradient id="wtc-c" x1="50%" x2="50%" y1="0%" y2="100%"><stop offset="0%" stop-color="#FFF" stop-opacity=".5"/><stop offset="100%" stop-opacity=".5"/></linearGradient><circle id="wtc-b" cx="16" cy="15" r="15"/><filter id="wtc-a" width="111.7%" height="111.7%" x="-5.8%" y="-4.2%" filterUnits="objectBoundingBox"><feOffset dy=".5" in="SourceAlpha" result="shadowOffsetOuter1"/><feGaussianBlur in="shadowOffsetOuter1" result="shadowBlurOuter1" stdDeviation=".5"/><feComposite in="shadowBlurOuter1" in2="SourceAlpha" operator="out" result="shadowBlurOuter1"/><feColorMatrix in="shadowBlurOuter1" values="0 0 0 0 0 0 0 0 0 0 0 0 0 0 0 0 0 0 0.199473505 0"/></filter><filter id="wtc-d" width="117.5%" height="126.9%" x="-8.8%" y="-9.6%" filterUnits="objectBoundingBox"><feOffset dy=".5" in="SourceAlpha" result="shadowOffsetOuter1"/><feGaussianBlur in="shadowOffsetOuter1" result="shadowBlurOuter1" stdDeviation=".5"/><feColorMatrix in="shadowBlurOuter1" result="shadowMatrixOuter1" values="0 0 0 0 0 0 0 0 0 0 0 0 0 0 0 0 0 0 0.204257246 0"/><feMerge><feMergeNode in="shadowMatrixOuter1"/><feMergeNode in="SourceGraphic"/></feMerge></filter></defs><g fill="none" fill-rule="evenodd"><g fill-rule="nonzero"><use fill="#000" filter="url(#wtc-a)" xlink:href="#wtc-b"/><use fill="#8200FF" fill-rule="evenodd" xlink:href="#wtc-b"/><use fill="url(#wtc-c)" fill-rule="evenodd" style="mix-blend-mode:soft-light" xlink:href="#wtc-b"/><circle cx="16" cy="15" r="14.5" stroke="#000" stroke-opacity=".097"/></g><g fill="#FFF" filter="url(#wtc-d)" transform="translate(6 9)"><path d="M12.4137931,3.16638383 L11.7344336,3.33269456 C11.1204102,3.48301069 10.6896552,4.02324761 10.6896552,4.64301689 L10.6896552,9.18067439 L8.44312802,9.7306359 C8.07361429,9.82109478 7.69917671,9.60110055 7.60679828,9.23926503 C7.59312231,9.18569787 7.5862069,9.1306905 7.5862069,9.07547473 L7.5862069,1.51964027 C7.5862069,1.20975563 7.8015844,0.939637166 8.10859612,0.864479101 L11.556872,0.020323257 C11.9263857,-0.0701356236 12.3008233,0.149858611 12.3932017,0.511694134 C12.4068777,0.565261295 12.4137931,0.62026866 12.4137931,0.675484426 L12.4137931,3.16638383 Z M4.82758621,3.12417603 L3.97581293,3.33269456 C3.36178948,3.48301069 2.93103448,4.02324761 2.93103448,4.64301689 L2.93103448,9.22288218 L0.856921121,9.7306359 C0.487407391,9.82109478 0.112969812,9.60110055 0.0205913792,9.23926503 C0.00691541303,9.18569787 0,9.1306905 0,9.07547473 L0,1.51964027 C0,1.20975563 0.215377499,0.939637166 0.522389224,0.864479101 L3.97066509,0.020323257 C4.34017882,-0.0701356236 4.7146164,0.149858611 4.80699483,0.511694134 C4.82067079,0.565261295 4.82758621,0.62026866 4.82758621,0.675484426 L4.82758621,3.12417603 Z M15.694803,0.885103417 L19.1430789,0.0409475731 C19.5125926,-0.0495113075 19.8870302,0.170482927 19.9794086,0.53231845 C19.9930846,0.585885611 20,0.640892976 20,0.696108742 L20,8.25194321 C20,8.56182785 19.7846225,8.83194631 19.4776108,8.90710437 L16.0293349,9.75126022 C15.6598212,9.8417191 15.2853836,9.62172486 15.1930052,9.25988934 C15.1793292,9.20632218 15.1724138,9.15131482 15.1724138,9.09609905 L15.1724138,1.54026459 C15.1724138,1.23037994 15.3877913,0.960261482 15.694803,0.885103417 Z"/><path d="M6.89655172,3.31379127 L6.89655172,9.07547473 C6.89655172,9.18590627 6.91038255,9.295921 6.93773448,9.40305532 C7.10897596,10.0737882 7.76482136,10.5008244 8.44827586,10.4156648 L8.44827586,11.3546955 C8.44827586,11.6645802 8.23289836,11.9346986 7.92588664,12.0098567 L4.47761078,12.8540125 C4.10809705,12.9444714 3.73365947,12.7244772 3.64128103,12.3626416 C3.62760507,12.3090745 3.62068966,12.2540671 3.62068966,12.1988514 L3.62068966,4.64301689 C3.62068966,4.33313225 3.83606715,4.06301379 4.14307888,3.98785572 L6.89655172,3.31379127 Z M14.4827586,3.35599906 L14.4827586,9.09609905 C14.4827586,9.20653058 14.4965894,9.31654531 14.5239414,9.42367963 C14.7086982,10.1473507 15.4575734,10.5873391 16.1966009,10.4064214 L16.2068966,10.4039009 L16.2068966,11.3546955 C16.2068966,11.6645802 15.9915191,11.9346986 15.6845073,12.0098567 L12.2362315,12.8540125 C11.8667177,12.9444714 11.4922802,12.7244772 11.3999017,12.3626416 C11.3862258,12.3090745 11.3793103,12.2540671 11.3793103,12.1988514 L11.3793103,4.64301689 C11.3793103,4.33313225 11.5946878,4.06301379 11.9016996,3.98785572 L14.4827586,3.35599906 Z" opacity=".504"/></g></g></svg>

<svg xmlns="http://www.w3.org/2000/svg" xmlns:xlink="http://www.w3.org/1999/xlink" width="32" height="32" viewBox="0 0 32 32"><defs><filter id="a" width="111.7%" height="111.7%" x="-5.8%" y="-4.2%" filterUnits="objectBoundingBox"><feOffset dy=".5" in="SourceAlpha" result="shadowOffsetOuter1"/><feGaussianBlur in="shadowOffsetOuter1" result="shadowBlurOuter1" stdDeviation=".5"/><feComposite in="shadowBlurOuter1" in2="SourceAlpha" operator="out" result="shadowBlurOuter1"/><feColorMatrix in="shadowBlurOuter1" values="0 0 0 0 0 0 0 0 0 0 0 0 0 0 0 0 0 0 0.199473505 0"/></filter><filter id="d" width="117.5%" height="126.9%" x="-8.8%" y="-9.6%" filterUnits="objectBoundingBox"><feOffset dy=".5" in="SourceAlpha" result="shadowOffsetOuter1"/><feGaussianBlur in="shadowOffsetOuter1" result="shadowBlurOuter1" stdDeviation=".5"/><feColorMatrix in="shadowBlurOuter1" result="shadowMatrixOuter1" values="0 0 0 0 0 0 0 0 0 0 0 0 0 0 0 0 0 0 0.204257246 0"/><feMerge><feMergeNode in="shadowMatrixOuter1"/><feMergeNode in="SourceGraphic"/></feMerge></filter><linearGradient id="c" x1="50%" x2="50%" y1="0%" y2="100%"><stop offset="0%" stop-color="#FFF" stop-opacity=".5"/><stop offset="100%" stop-opacity=".5"/></linearGradient><circle id="b" cx="16" cy="15" r="15"/></defs><g fill="none" fill-rule="evenodd"><g fill-rule="nonzero"><use fill="#000" filter="url(#a)" xlink:href="#b"/><use fill="#8200FF" fill-rule="evenodd" xlink:href="#b"/><use fill="url(#c)" fill-rule="evenodd" style="mix-blend-mode:soft-light" xlink:href="#b"/><circle cx="16" cy="15" r="14.5" stroke="#000" stroke-opacity=".097"/></g><g fill="#FFF" filter="url(#d)" transform="translate(6 9)"><path d="M12.414 3.166l-.68.167c-.614.15-1.044.69-1.044 1.31v4.538l-2.247.55a.69.69 0 01-.836-.492.662.662 0 01-.02-.164V1.52c0-.31.215-.58.522-.656L11.557.02a.69.69 0 01.836.492c.014.053.02.108.02.163v2.491zm-7.586-.042l-.852.209c-.614.15-1.045.69-1.045 1.31v4.58L.857 9.73a.69.69 0 01-.836-.492A.662.662 0 010 9.075V1.52C0 1.21.215.94.522.864L3.971.02a.69.69 0 01.836.492c.014.053.02.108.02.163v2.45zM15.695.885l3.448-.844a.69.69 0 01.836.491.653.653 0 01.021.164v7.556c0 .31-.215.58-.522.655l-3.449.844a.69.69 0 01-.836-.491.662.662 0 01-.02-.164V1.54c0-.31.215-.58.522-.655z"/><path d="M6.897 3.314v5.761c0 .11.013.22.04.328a1.38 1.38 0 001.511 1.013v.939c0 .31-.215.58-.522.655l-3.448.844a.69.69 0 01-.837-.491.662.662 0 01-.02-.164V4.643c0-.31.215-.58.522-.655l2.754-.674zm7.586.042v5.74c0 .11.014.22.04.328.186.723.935 1.163 1.674.982l.01-.002v.95a.68.68 0 01-.522.656l-3.449.844a.69.69 0 01-.836-.491.662.662 0 01-.02-.164V4.643c0-.31.215-.58.522-.655l2.58-.632z" opacity=".504"/></g></g></svg>
